{ "compressionlevel":-1,
 "height":13,
 "infinite":false,
 "layers":[
        {
         "data":[2, 2, 2, 2, 2, 2, 2, 2, 2, 2, 2, 2, 2,
            2, 1, 4, 1, 1, 1, 1, 1, 1, 1, 1, 1, 2,
            2, 1, 2, 1, 2, 1, 2, 1, 2, 1, 2, 1, 2,
            2, 1, 1, 4, 1, 1, 4, 1, 1, 1, 1, 1, 2,
            2, 1, 2, 1, 2, 1, 2, 1, 2, 1, 2, 1, 2,
            2, 1, 1, 1, 1, 4, 4, 1, 1, 4, 1, 1, 2,
            2, 1, 2, 1, 2, 1, 2, 1, 2, 4, 2, 1, 2,
            2, 1, 1, 1, 1, 1, 1, 4, 1, 4, 1, 1, 2,
            2, 1, 2, 1, 2, 1, 2, 1, 2, 1, 2, 1, 2,
            2, 1, 1, 1, 1, 4, 1, 4, 1, 1, 1, 1, 2,
            2, 1, 2, 1, 2, 1, 2, 1, 2, 1, 2, 1, 2,
            2, 1, 1, 1, 1, 1, 1, 1, 1, 1, 1, 1, 2,
            2, 2, 2, 2, 2, 2, 2, 2, 2, 2, 2, 2, 2],
         "height":13,
         "id":2,
         "name":"Ground",
         "opacity":1,
         "type":"tilelayer",
         "visible":true,
         "width":13,
         "x":0,
         "y":0
        }, 
        {
         "data":[2, 2, 2, 2, 2, 2, 2, 2, 2, 2, 2, 2, 2,
            2, 4, 4, 1, 1, 4, 1, 1, 1, 1, 4, 1, 2,
            2, 1, 2, 1, 2, 4, 2, 1, 2, 1, 2, 4, 2,
            2, 1, 4, 4, 1, 1, 4, 1, 1, 1, 1, 1, 2,
            2, 1, 2, 1, 2, 4, 2, 1, 2, 1, 2, 4, 2,
            2, 4, 1, 1, 1, 1, 1, 1, 1, 1, 1, 4, 2,
            2, 1, 2, 1, 2, 4, 2, 1, 2, 1, 2, 4, 2,
            2, 1, 1, 1, 1, 1, 4, 1, 4, 1, 1, 4, 2,
            2, 1, 2, 1, 2, 4, 2, 1, 2, 1, 2, 4, 2,
            2, 4, 1, 4, 1, 4, 4, 1, 1, 4, 4, 4, 2,
            2, 1, 2, 1, 2, 4, 2, 1, 2, 1, 2, 4, 2,
            2, 1, 4, 4, 1, 1, 1, 1, 1, 4, 1, 1, 2,
            2, 2, 2, 2, 2, 2, 2, 2, 2, 2, 2, 2, 2],
         "height":13,
         "id":1,
         "name":"Collision",
         "opacity":1,
         "type":"tilelayer",
         "visible":true,
         "width":13,
         "x":0,
         "y":0
        }, 
        {
         "draworder":"topdown",
         "id":3,
         "name":"Spawns",
         "objects":[
                {
                 "height":0,
                 "id":4,
                 "name":"",
                 "opacity":1,
                 "point":true,
                 "rotation":0,
                 "type":"",
                 "visible":true,
                 "width":0,
                 "x":127.130730050934,
                 "y":-29.036030937559
                }, 
                {
                 "height":0,
                 "id":6,
                 "name":"player_spawn",
                 "opacity":1,
                 "point":true,
                 "rotation":0,
                 "type":"",
                 "visible":true,
                 "width":0,
                 "x":24,
                 "y":24
                }],
         "opacity":1,
         "type":"objectgroup",
         "visible":true,
         "x":0,
         "y":0
        }],
 "nextlayerid":4,
 "nextobjectid":7,
 "orientation":"orthogonal",
 "renderorder":"right-down",
 "tiledversion":"1.12.2",
 "tileheight":16,
 "tilesets":[
        {
         "firstgid":1,
         "source":"bomberman_tileset.tsx"
        }],
 "tilewidth":16,
 "type":"map",
 "version":"1.10",
 "width":13
}